packages/assets/static/images/icons/bold/audio-description--bold.svg

<svg width="24" height="24" viewBox="0 0 24 24" xmlns="http://www.w3.org/2000/svg">
<path d="M21 4.49951H3C2.17312 4.49951 1.5 5.17264 1.5 5.99951V17.9995C1.5 18.8264 2.17312 19.4995 3 19.4995H21C21.8269 19.4995 22.5 18.8264 22.5 17.9995V5.99951C22.5 5.17264 21.8269 4.49951 21 4.49951ZM21 17.9995H3V5.99951H21V17.9995Z"/>
<path d="M4.72875 15.7626C5.09906 15.9473 5.55 15.7973 5.73469 15.427L6.29437 14.3067H9.97312L10.5328 15.427C10.6641 15.6895 10.9294 15.8414 11.2041 15.8414C11.3166 15.8414 11.4309 15.8161 11.5387 15.7617C11.9091 15.5761 12.0591 15.1261 11.8744 14.7558L8.80406 8.61514C8.67656 8.36107 8.41781 8.20076 8.13281 8.20076C7.84781 8.20076 7.58906 8.36107 7.46156 8.61514L5.17031 13.1967C5.17031 13.1967 5.16562 13.2061 5.16375 13.2108L4.39125 14.7558C4.20562 15.1261 4.35656 15.577 4.72687 15.7617L4.72875 15.7626ZM8.13469 10.6289L9.22406 12.8076H7.04531L8.13469 10.6289Z"/>
<path d="M14.1553 15.7964H14.9231C17.9184 15.7964 19.5675 14.4558 19.5675 12.022C19.5675 9.80107 17.6578 8.24951 14.9231 8.24951H14.1553C13.7409 8.24951 13.4053 8.58514 13.4053 8.99951V15.0464C13.4053 15.4608 13.7409 15.7964 14.1553 15.7964ZM14.9053 9.74951H14.9231C16.8038 9.74951 18.0675 10.6626 18.0675 12.022C18.0675 12.6445 18.0675 14.2964 14.9231 14.2964H14.9053V9.74951Z"/>
</svg>

<svg viewBox="0 0 24 24" xmlns="http://www.w3.org/2000/svg" aria-hidden="true" fill="currentColor"><path d="M21 4.5H3c-.827 0-1.5.673-1.5 1.5v12c0 .826.673 1.5 1.5 1.5h18c.827 0 1.5-.674 1.5-1.5V6c0-.827-.673-1.5-1.5-1.5M21 18H3V6h18z"/><path d="M4.729 15.763a.75.75 0 0 0 1.006-.336l.56-1.12h3.678l.56 1.12a.75.75 0 0 0 1.341-.671l-3.07-6.14a.75.75 0 0 0-1.342 0l-2.292 4.58-.006.015-.773 1.545a.75.75 0 0 0 .336 1.006zm3.406-5.134 1.09 2.179h-2.18zm6.02 5.167h.768c2.995 0 4.644-1.34 4.644-3.774 0-2.22-1.91-3.772-4.644-3.772h-.768a.75.75 0 0 0-.75.75v6.046c0 .415.336.75.75.75m.75-6.046h.018c1.88 0 3.144.913 3.144 2.272 0 .623 0 2.274-3.144 2.274h-.018z"/></svg>
